assets/img/icons/skills/node.js.svg

<svg width="104" height="65" viewBox="0 0 104 65" fill="none" xmlns="http://www.w3.org/2000/svg">
<path d="M51.3662 64.8125C51.014 64.8125 50.6853 64.7168 50.3801 64.5493L47.2578 62.6593C46.7883 62.3961 47.023 62.3004 47.1639 62.2525C47.7978 62.0372 47.9151 61.9894 48.5725 61.6066C48.6429 61.5587 48.7368 61.5826 48.8072 61.6305L51.2018 63.0899C51.2957 63.1378 51.4131 63.1378 51.4835 63.0899L60.8506 57.5633C60.9445 57.5154 60.9914 57.4197 60.9914 57.3001V46.2707C60.9914 46.1511 60.9445 46.0554 60.8506 46.0075L51.4835 40.5048C51.3896 40.457 51.2722 40.457 51.2018 40.5048L41.8348 46.0075C41.7409 46.0554 41.6939 46.175 41.6939 46.2707V57.3001C41.6939 57.3958 41.7409 57.5154 41.8348 57.5633L44.3937 59.0705C45.7788 59.7883 46.6474 58.9509 46.6474 58.1135V47.2277C46.6474 47.0842 46.7648 46.9406 46.9291 46.9406H48.1264C48.2673 46.9406 48.4081 47.0602 48.4081 47.2277V58.1135C48.4081 60.0036 47.3987 61.1042 45.6379 61.1042C45.098 61.1042 44.6754 61.1041 43.4781 60.506L41.0131 59.0705C40.4027 58.7117 40.0271 58.0418 40.0271 57.324V46.2946C40.0271 45.5769 40.4027 44.907 41.0131 44.5481L50.3801 39.0215C50.9671 38.6865 51.7652 38.6865 52.3522 39.0215L61.7192 44.5481C62.3296 44.907 62.7052 45.5769 62.7052 46.2946V57.324C62.7052 58.0418 62.3296 58.7117 61.7192 59.0705L52.3522 64.5972C52.047 64.7407 51.6948 64.8125 51.3662 64.8125ZM54.2537 57.2283C50.1454 57.2283 49.3002 55.3143 49.3002 53.6874C49.3002 53.5439 49.4176 53.4003 49.582 53.4003H50.8027C50.9436 53.4003 51.061 53.496 51.061 53.6396C51.2488 54.9076 51.7887 55.5296 54.2772 55.5296C56.2492 55.5296 57.0944 55.0751 57.0944 53.9985C57.0944 53.3764 56.8596 52.9218 53.7842 52.6108C51.2253 52.3476 49.6289 51.7734 49.6289 49.692C49.6289 47.7541 51.2253 46.6057 53.9016 46.6057C56.9066 46.6057 58.3856 47.6584 58.5734 49.9552C58.5734 50.0269 58.5499 50.0987 58.5029 50.1705C58.456 50.2183 58.3856 50.2662 58.3151 50.2662H57.0944C56.977 50.2662 56.8596 50.1705 56.8361 50.0508C56.5544 48.735 55.8266 48.3043 53.9016 48.3043C51.7418 48.3043 51.4835 49.0699 51.4835 49.6441C51.4835 50.3379 51.7887 50.5533 54.6998 50.9361C57.5874 51.3189 58.949 51.8691 58.949 53.9267C58.9255 56.0321 57.2352 57.2283 54.2537 57.2283Z" fill="#539E43"/>
<path d="M22.3025 21.676C22.3025 21.2454 22.0677 20.8386 21.6921 20.6233L11.7381 14.7856C11.5738 14.6899 11.386 14.6421 11.1982 14.6182H11.1043C10.9165 14.6182 10.7287 14.6899 10.5643 14.7856L0.610384 20.6233C0.234763 20.8386 0 21.2454 0 21.676L0.0234763 37.3707C0.0234763 37.5861 0.140858 37.8014 0.328668 37.8971C0.516479 38.0167 0.751242 38.0167 0.915576 37.8971L6.8316 34.4519C7.20722 34.2366 7.44199 33.8299 7.44199 33.3992V26.0543C7.44199 25.6236 7.67675 25.2169 8.05237 25.0016L10.5643 23.5182C10.7521 23.3986 10.9634 23.3507 11.1747 23.3507C11.386 23.3507 11.5973 23.3986 11.7616 23.5182L14.2736 25.0016C14.6492 25.2169 14.884 25.6236 14.884 26.0543V33.3992C14.884 33.8299 15.1187 34.2366 15.4944 34.4519L21.4104 37.8971C21.5982 38.0167 21.833 38.0167 22.0208 37.8971C22.2086 37.8014 22.326 37.5861 22.326 37.3707L22.3025 21.676Z" fill="#333333"/>
<path d="M70.1472 0.0717747C69.9594 -0.0239249 69.7246 -0.0239249 69.5603 0.0717747C69.3725 0.191399 69.2551 0.382798 69.2551 0.598122V16.1493C69.2551 16.2929 69.1847 16.4364 69.0438 16.5321C68.9029 16.6039 68.7621 16.6039 68.6212 16.5321L66.1327 15.0727C65.7571 14.8574 65.3111 14.8574 64.9355 15.0727L54.9815 20.9343C54.6059 21.1496 54.3711 21.5563 54.3711 21.987V33.6862C54.3711 34.1169 54.6059 34.5236 54.9815 34.7389L64.9355 40.6005C65.3111 40.8159 65.7571 40.8159 66.1327 40.6005L76.0867 34.7389C76.4623 34.5236 76.6971 34.1169 76.6971 33.6862V4.5218C76.6971 4.06723 76.4623 3.66051 76.0867 3.44518L70.1472 0.0717747ZM69.2316 29.8343C69.2316 29.954 69.1847 30.0497 69.0908 30.0975L65.6867 32.1072C65.5928 32.1551 65.4754 32.1551 65.3815 32.1072L61.9774 30.0975C61.8835 30.0497 61.8366 29.93 61.8366 29.8343V25.815C61.8366 25.6953 61.8835 25.5996 61.9774 25.5518L65.3815 23.5421C65.4754 23.4942 65.5928 23.4942 65.6867 23.5421L69.0908 25.5518C69.1847 25.5996 69.2316 25.7193 69.2316 25.815V29.8343Z" fill="#333333"/>
<path d="M103.272 25.7192C103.648 25.5039 103.859 25.0972 103.859 24.6665V21.8194C103.859 21.3888 103.624 20.9821 103.272 20.7667L93.3887 14.9291C93.0131 14.7137 92.5671 14.7137 92.1914 14.9291L82.2375 20.7907C81.8619 21.006 81.6271 21.4127 81.6271 21.8434V33.5426C81.6271 33.9733 81.8619 34.38 82.2375 34.5953L92.121 40.3373C92.4966 40.5526 92.9427 40.5526 93.2948 40.3373L99.2813 36.94C99.4691 36.8443 99.5865 36.629 99.5865 36.4136C99.5865 36.1983 99.4691 35.983 99.2813 35.8873L89.2804 30.0257C89.0926 29.9061 88.9752 29.7147 88.9752 29.4993V25.8388C88.9752 25.6235 89.0926 25.4082 89.2804 25.3125L92.4027 23.4942C92.5905 23.3746 92.8253 23.3746 93.0131 23.4942L96.1354 25.3125C96.3233 25.4321 96.4406 25.6235 96.4406 25.8388V28.7098C96.4406 28.9251 96.558 29.1405 96.7458 29.2362C96.9336 29.3558 97.1684 29.3558 97.3562 29.2362L103.272 25.7192Z" fill="#333333"/>
<path d="M92.6375 25.1689C92.7079 25.1211 92.8018 25.1211 92.8723 25.1689L94.7738 26.2934C94.8443 26.3413 94.8912 26.413 94.8912 26.5087V28.7577C94.8912 28.8534 94.8443 28.9252 94.7738 28.973L92.8723 30.0975C92.8018 30.1453 92.7079 30.1453 92.6375 30.0975L90.7359 28.973C90.6655 28.9252 90.6185 28.8534 90.6185 28.7577V26.5087C90.6185 26.413 90.6655 26.3413 90.7359 26.2934L92.6375 25.1689Z" fill="#539E43"/>
<mask id="mask0" mask-type="alpha" maskUnits="userSpaceOnUse" x="27" y="14" width="23" height="27">
<path d="M38.9472 14.9769C38.5715 14.7616 38.1255 14.7616 37.7499 14.9769L27.8664 20.7907C27.4907 21.006 27.2794 21.4127 27.2794 21.8434V33.4948C27.2794 33.9254 27.5142 34.3322 27.8664 34.5475L37.7499 40.3612C38.1255 40.5766 38.5715 40.5766 38.9472 40.3612L48.8307 34.5475C49.2063 34.3322 49.4176 33.9254 49.4176 33.4948V21.8434C49.4176 21.4127 49.1828 21.006 48.8307 20.7907L38.9472 14.9769Z" fill="white"/>
</mask>
<g mask="url(#mask0)">
<path d="M38.9472 14.9769C38.5715 14.7616 38.1255 14.7616 37.7499 14.9769L27.8664 20.7907C27.4907 21.006 27.2794 21.4127 27.2794 21.8434V33.4948C27.2794 33.9254 27.5142 34.3322 27.8664 34.5475L37.7499 40.3612C38.1255 40.5766 38.5715 40.5766 38.9472 40.3612L48.8307 34.5475C49.2063 34.3322 49.4176 33.9254 49.4176 33.4948V21.8434C49.4176 21.4127 49.1828 21.006 48.8307 20.7907L38.9472 14.9769Z" fill="url(#paint0_linear)"/>
<path d="M48.8542 20.7901L38.9237 14.9763C38.8298 14.9285 38.7124 14.8806 38.6185 14.8567L27.4908 34.2837C27.5847 34.4033 27.702 34.499 27.8194 34.5708L37.7499 40.3845C38.0316 40.552 38.3603 40.5999 38.6655 40.5042L49.1124 21.0293C49.042 20.9336 48.9481 20.8618 48.8542 20.7901Z" fill="url(#paint1_linear)"/>
<path fill-rule="evenodd" clip-rule="evenodd" d="M48.8777 34.5476C49.1594 34.3802 49.3707 34.0931 49.4646 33.782L38.5716 14.8335C38.2898 14.7857 37.9846 14.8096 37.7264 14.9771L27.8664 20.7669L38.5011 40.5289C38.642 40.5049 38.8063 40.4571 38.9472 40.3853L48.8777 34.5476Z" fill="url(#paint2_linear)"/>
<path fill-rule="evenodd" clip-rule="evenodd" d="M48.8776 34.5473L38.9706 40.3611C38.8298 40.4328 38.6889 40.4807 38.5246 40.5046L38.7124 40.8635L49.6993 34.3799V34.2363L49.4176 33.7578C49.3706 34.0928 49.1594 34.3799 48.8776 34.5473Z" fill="url(#paint3_linear)"/>
<path fill-rule="evenodd" clip-rule="evenodd" d="M48.8776 34.5473L38.9706 40.3611C38.8298 40.4328 38.6889 40.4807 38.5246 40.5046L38.7124 40.8635L49.6993 34.3799V34.2363L49.4176 33.7578C49.3706 34.0928 49.1594 34.3799 48.8776 34.5473Z" fill="url(#paint4_linear)"/>
</g>
<defs>
<linearGradient id="paint0_linear" x1="42.3751" y1="19.3108" x2="31.2472" y2="36.4675" gradientUnits="userSpaceOnUse">
<stop stop-color="#41873F"/>
<stop offset="0.3288" stop-color="#418B3D"/>
<stop offset="0.6352" stop-color="#419637"/>
<stop offset="0.9319" stop-color="#3FA92D"/>
<stop offset="1" stop-color="#3FAE2A"/>
</linearGradient>
<linearGradient id="paint1_linear" x1="36.8479" y1="29.033" x2="64.2108" y2="14.4455" gradientUnits="userSpaceOnUse">
<stop offset="0.1376" stop-color="#41873F"/>
<stop offset="0.4032" stop-color="#54A044"/>
<stop offset="0.7136" stop-color="#66B848"/>
<stop offset="0.9081" stop-color="#6CC04A"/>
</linearGradient>
<linearGradient id="paint2_linear" x1="26.9185" y1="27.6696" x2="49.7884" y2="27.6696" gradientUnits="userSpaceOnUse">
<stop offset="0.0919165" stop-color="#6CC04A"/>
<stop offset="0.2864" stop-color="#66B848"/>
<stop offset="0.5968" stop-color="#54A044"/>
<stop offset="0.8624" stop-color="#41873F"/>
</linearGradient>
<linearGradient id="paint3_linear" x1="26.9185" y1="37.3302" x2="49.7884" y2="37.3302" gradientUnits="userSpaceOnUse">
<stop offset="0.0919165" stop-color="#6CC04A"/>
<stop offset="0.2864" stop-color="#66B848"/>
<stop offset="0.5968" stop-color="#54A044"/>
<stop offset="0.8624" stop-color="#41873F"/>
</linearGradient>
<linearGradient id="paint4_linear" x1="53.1202" y1="18.7599" x2="47.111" y2="49.6577" gradientUnits="userSpaceOnUse">
<stop stop-color="#41873F"/>
<stop offset="0.3288" stop-color="#418B3D"/>
<stop offset="0.6352" stop-color="#419637"/>
<stop offset="0.9319" stop-color="#3FA92D"/>
<stop offset="1" stop-color="#3FAE2A"/>
</linearGradient>
</defs>
</svg>

<svg width="104" height="65" fill="none" xmlns="http://www.w3.org/2000/svg"><path d="M51.366 64.813c-.352 0-.68-.096-.986-.264l-3.122-1.89c-.47-.263-.235-.359-.094-.407.634-.215.751-.263 1.408-.645.07-.048.165-.024.235.023l2.395 1.46c.094.048.211.048.282 0l9.367-5.527c.093-.048.14-.143.14-.263V46.27c0-.119-.047-.215-.14-.263l-9.367-5.502c-.094-.048-.212-.048-.282 0l-9.367 5.502c-.094.048-.141.168-.141.264V57.3c0 .095.047.214.14.262l2.56 1.508c1.385.717 2.253-.12 2.253-.957V47.228c0-.144.118-.287.282-.287h1.197c.141 0 .282.12.282.287v10.886c0 1.89-1.01 2.99-2.77 2.99-.54 0-.963 0-2.16-.598l-2.465-1.435a2.026 2.026 0 0 1-.986-1.747v-11.03c0-.717.376-1.387.986-1.746l9.367-5.526a2.06 2.06 0 0 1 1.972 0l9.367 5.526c.61.359.986 1.029.986 1.747v11.029c0 .718-.375 1.388-.986 1.747l-9.367 5.526a2.366 2.366 0 0 1-.986.216Zm2.888-7.585c-4.109 0-4.954-1.914-4.954-3.54a.29.29 0 0 1 .282-.288h1.22c.142 0 .259.096.259.24.188 1.268.728 1.89 3.216 1.89 1.972 0 2.817-.455 2.817-1.532 0-.622-.234-1.076-3.31-1.387-2.559-.263-4.155-.838-4.155-2.919 0-1.938 1.596-3.086 4.273-3.086 3.005 0 4.484 1.052 4.671 3.35a.39.39 0 0 1-.07.214c-.047.048-.117.096-.188.096h-1.22a.276.276 0 0 1-.259-.215c-.282-1.316-1.01-1.747-2.934-1.747-2.16 0-2.419.766-2.419 1.34 0 .694.306.91 3.217 1.292 2.887.383 4.249.933 4.249 2.99-.023 2.106-1.714 3.302-4.695 3.302Z" fill="#539E43"/><path d="M22.302 21.676c0-.43-.234-.837-.61-1.053l-9.954-5.837a1.424 1.424 0 0 0-.54-.168h-.094a1.1 1.1 0 0 0-.54.168L.61 20.623c-.375.216-.61.622-.61 1.053l.023 15.695c0 .215.118.43.306.526.187.12.422.12.587 0l5.916-3.445c.375-.215.61-.622.61-1.053v-7.345c0-.43.235-.837.61-1.052l2.512-1.484c.188-.12.4-.167.61-.167.212 0 .423.048.588.167l2.512 1.484c.375.215.61.622.61 1.052V33.4c0 .43.235.838.61 1.053l5.916 3.445c.188.12.423.12.61 0a.596.596 0 0 0 .306-.526l-.024-15.695ZM70.147.072a.635.635 0 0 0-.587 0 .626.626 0 0 0-.305.526V16.15c0 .144-.07.287-.211.383a.441.441 0 0 1-.423 0l-2.488-1.46a1.19 1.19 0 0 0-1.197 0l-9.955 5.862c-.375.216-.61.622-.61 1.053v11.7c0 .43.235.837.61 1.052l9.955 5.861a1.19 1.19 0 0 0 1.197 0l9.954-5.861c.375-.215.61-.622.61-1.053V4.522c0-.455-.235-.861-.61-1.077L70.147.072Zm-.915 29.762c0 .12-.047.216-.141.264l-3.404 2.01a.342.342 0 0 1-.305 0l-3.405-2.01c-.093-.048-.14-.168-.14-.264v-4.019c0-.12.046-.215.14-.263l3.405-2.01a.342.342 0 0 1 .305 0l3.404 2.01c.094.048.14.167.14.263v4.02Zm34.04-4.114a1.2 1.2 0 0 0 .587-1.053v-2.848c0-.43-.235-.837-.587-1.052l-9.883-5.838a1.19 1.19 0 0 0-1.198 0l-9.954 5.862c-.375.215-.61.622-.61 1.052v11.7c0 .43.235.837.61 1.052l9.884 5.742c.376.216.822.216 1.174 0l5.986-3.397a.596.596 0 0 0 .305-.526.596.596 0 0 0-.305-.527l-10-5.861a.626.626 0 0 1-.306-.527v-3.66c0-.215.118-.43.305-.526l3.123-1.819a.564.564 0 0 1 .61 0l3.122 1.819c.188.12.306.31.306.526v2.87c0 .216.117.431.305.527.188.12.422.12.61 0l5.916-3.517Z" fill="#333"/><path d="M92.638 25.169a.21.21 0 0 1 .234 0l1.902 1.124c.07.048.117.12.117.216v2.249a.252.252 0 0 1-.117.215l-1.902 1.125a.21.21 0 0 1-.234 0l-1.902-1.125a.252.252 0 0 1-.118-.215v-2.25c0-.095.047-.167.118-.215l1.901-1.124Z" fill="#539E43"/><mask id="a" mask-type="alpha" maskUnits="userSpaceOnUse" x="27" y="14" width="23" height="27"><path d="M38.947 14.977a1.19 1.19 0 0 0-1.197 0l-9.884 5.814a1.2 1.2 0 0 0-.587 1.052v11.652c0 .43.235.837.587 1.053l9.884 5.813a1.19 1.19 0 0 0 1.197 0l9.884-5.813a1.2 1.2 0 0 0 .587-1.053V21.843c0-.43-.235-.837-.587-1.052l-9.884-5.814Z" fill="#fff"/></mask><g mask="url(#a)"><path d="M38.947 14.977a1.19 1.19 0 0 0-1.197 0l-9.884 5.814a1.2 1.2 0 0 0-.587 1.052v11.652c0 .43.235.837.587 1.053l9.884 5.813a1.19 1.19 0 0 0 1.197 0l9.884-5.813a1.2 1.2 0 0 0 .587-1.053V21.843c0-.43-.235-.837-.587-1.052l-9.884-5.814Z" fill="url(#b)"/><path d="m48.854 20.79-9.93-5.814a1.613 1.613 0 0 0-.306-.12L27.491 34.285c.094.12.211.215.328.287l9.93 5.814c.283.167.611.215.916.12L49.112 21.03a1.236 1.236 0 0 0-.258-.239Z" fill="url(#c)"/><path fill-rule="evenodd" clip-rule="evenodd" d="M48.878 34.548c.281-.168.493-.455.587-.766L38.572 14.834c-.282-.048-.587-.024-.846.143l-9.86 5.79 10.635 19.762a1.61 1.61 0 0 0 .446-.144l9.93-5.837Z" fill="url(#d)"/><path fill-rule="evenodd" clip-rule="evenodd" d="m48.878 34.547-9.907 5.814c-.141.072-.282.12-.446.144l.187.358L49.7 34.38v-.144l-.281-.478a1.111 1.111 0 0 1-.54.79Z" fill="url(#e)"/><path fill-rule="evenodd" clip-rule="evenodd" d="m48.878 34.547-9.907 5.814c-.141.072-.282.12-.446.144l.187.358L49.7 34.38v-.144l-.281-.478a1.111 1.111 0 0 1-.54.79Z" fill="url(#f)"/></g><defs><linearGradient id="b" x1="42.375" y1="19.311" x2="31.247" y2="36.468" gradientUnits="userSpaceOnUse"><stop stop-color="#41873F"/><stop offset=".329" stop-color="#418B3D"/><stop offset=".635" stop-color="#419637"/><stop offset=".932" stop-color="#3FA92D"/><stop offset="1" stop-color="#3FAE2A"/></linearGradient><linearGradient id="c" x1="36.848" y1="29.033" x2="64.211" y2="14.445" gradientUnits="userSpaceOnUse"><stop offset=".138" stop-color="#41873F"/><stop offset=".403" stop-color="#54A044"/><stop offset=".714" stop-color="#66B848"/><stop offset=".908" stop-color="#6CC04A"/></linearGradient><linearGradient id="d" x1="26.919" y1="27.67" x2="49.788" y2="27.67" gradientUnits="userSpaceOnUse"><stop offset=".092" stop-color="#6CC04A"/><stop offset=".286" stop-color="#66B848"/><stop offset=".597" stop-color="#54A044"/><stop offset=".862" stop-color="#41873F"/></linearGradient><linearGradient id="e" x1="26.919" y1="37.33" x2="49.788" y2="37.33" gradientUnits="userSpaceOnUse"><stop offset=".092" stop-color="#6CC04A"/><stop offset=".286" stop-color="#66B848"/><stop offset=".597" stop-color="#54A044"/><stop offset=".862" stop-color="#41873F"/></linearGradient><linearGradient id="f" x1="53.12" y1="18.76" x2="47.111" y2="49.658" gradientUnits="userSpaceOnUse"><stop stop-color="#41873F"/><stop offset=".329" stop-color="#418B3D"/><stop offset=".635" stop-color="#419637"/><stop offset=".932" stop-color="#3FA92D"/><stop offset="1" stop-color="#3FAE2A"/></linearGradient></defs></svg>
